!!!OTL: 483. An die Wankelmuethige.
!!!COM: Volksweise
!!!ODT: 1839
!!!ARE: Europa, Mitteleuropa, Deutschland, Rheinland
!!!SCT: B0483
!!!TXL: @@DE
!!!YEM: Copyright 1995, estate of Helmut Schaffrath.
**kern	**text
*ICvox	*
*Ivox	*
*clefG2	*
*M6/8	*
*k[b-]	*
*F:	*
!LO:TX:a:t=Langſam.	!
{8c	Dir
=1	=1
4f	fol-
8f	-gen
4a	mei-
8cc	-ne
=2	=2
(4cc	Thrä-
8b-)	.
4g}	-nen,
{8c	dir,
=3	=3
4f	die
8f	du
4g	von
8a	mir
=4	=4
4.f	fliehſt
4r}	.
{8cc	und
=5	=5
4dd	mein
8b-	un-
8ffL	-end-
8eeJ	.
8dd	-lich
=6	=6
(4cc	Seh-
8a)	.
4f}	-nen
{8a	ganʒ
=7	=7
4g	oh-
8g	-ne
4cc	Mit-
8e	-leid
=8	=8
4.f	ſiehſt.
4r}	.
{8a	Jetʒt
=9	=9
4g	iſt
8g	der
4a-	Tag
8a-	ver-
=10	=10
(4a-	-lo-
8g)	.
4g}	-ren,
{8g	auf
=11	=11
4a-	den
8a-	ich
16b-qq	.
8a-L	mich
8gJ	.
8f	ge-
=12	=12
[4.cc	-freut
4cc;]}	.
{8c	ach,
=13	=13
4f	was
8f	ich
4a	dir
8cc	ge-
=14	=14
(4cc	-ſchwo-
8b-)	.
4g}	-ren,
{8c	hat
=15	=15
4f	mich
8f	noch
4g	nie
8a	ge-
=16	=16
4.f	-reut,
4r}	.
{8cc	ach
=17	=17
4dd	was
8b-	ich
8ffL	dir
8eeJ	.
8dd	ge-
=18	=18
(4cc	-ſchwo-
8a)	.
4f}	-ren,
{8a	hat
=19	=19
4g	mich
8g	noch
4cc	nie
8e	ge-
=20	=20
4.f	-reut.
4r}	.
==	==
!!!AGN: Liebes - Lied, Leid, Klage
!!!GTL: Liebeslieder - Liebesleid
!!!ONB: ESAC (Essen Associative Code) Database: BOEHME
!!!AMT: compound duple
!!!AIN: vox
!!!EED: Helmut Schaffrath
!!!EEV: 1.0
!!Rheiniſche Volksweiſe. 1839
!!@@COMMENT:"Gedicht aus "Geſchichte der Miß Fannn Wilkes", ſo gut als aus dem Engl. überſetʒt. Von
!!Johannes Timotheus Hermes. 2 Theile. Leipʒig 1766 (wiederholt 1781). Ueberſchrieben: "Nachruf an Jenny". - 
!!Eine Melodie daʒu giebt's von J. A. P. Schulʒ, "Geſänge am Clavier" 1779,
!!und "Lieder im Volkston 1785, auch im Mildh. Liederb. Nr. 372 und bei Fink, Hausſchatʒ" Nr. 829.
!!- Eine andere (Emoll) von Juliane Reichardt, geb. Bende. Hamburg 1782. Werthvoller iſt die
!!hier ſtebende Volksweiſe, von Erk 1839 ʒu Meurs aufgeſchrieben. Am Rhein und an der Moſel
!!ſingt man noch jetʒt ʒuweilen das Lied, aber nach der Volksweiſe: "Wer lieben will, muß leiden";
!!die Strophen werden dabei halbirt."
!!@@END:
!!!Text: J. T. Hermes
!!!URL-scan: https://archive.org/details/BoehmeVtLieder1895/page/n387/mode/2up
!!!ENC: Anna Maria Matuszewska
!!!EEV: 2024/10/07
*-	*-
